!!!!SEGMENT: pl-kozmzk--mzk-m-31--011_szymanowska-maria--preludium-g-dur.krn
!!!cenid: 18xx:447
!!!COM: Szymanowska, Maria
!!!COM-rismID: pe140138
!!!CDT: 1789/12/14-1831/07/25
!!!CNT: Polish
!!!GTL: Vingt Exercices et Préludes pour le Pianoforte
!!!OTL: Preludium G-dur
!!!PDT: 1819
!!!AGN: Secular; Prelude
!!!SMS-siglum: PL-KOZmzk
!!!SMS-shelfmark: mzk/m/31
!!!SMS-shelfwork: 011 G
!!!SMS-variant:
!!!SMS-altvar:
!!!NIFC-rismSourceID: 1001025334
!!!NIFC-islandoraID: pl-kozmzk:6325
!!!URL-pdf-islandora: https://repozytorium.nifc.pl/islandora/object/pl-kozmzk%3A6325/datastream/PDF/view
!!!URL-scan: https://polish.musicsources.pl/pl/lokalizacje/galeria/rekopisy/462 @EN{Scan on Polish Music Sources Website} @PL{Skany w portalu Dziedzictwo Muzyki Polskiej w otwartym dostępie}
!!!ONB-nifc:
!!!AIN: 1 piano
!!!key:
**kern	**fing	**kern	**fing	**dynam
*part1	*	*part1	*	*part1
*staff2	*	*staff1	*	*
*Ipiano	*	*Iempty	*	*
*I"Piano	*	*	*	*
*I'Pno.	*	*	*	*
*clefF4	*	*clefG2	*	*
*k[f#]	*	*k[f#]	*	*
*G:	*	*G:	*	*
*M6/8	*	*M6/8	*	*
=1	=1	=1	=1	=1
!LO:TX:a:i:t=ten	!	!LO:TX:a:B:t=Con fuoco	!	!
.	.	8qdd/	.	.
[2.GG\ [2.D\ [2.B\	.	8.ddd\L	5	.
.	.	16aa#X\L	2	.
.	.	16ccc\	4	.
.	.	16bb\JJ	3	.
.	.	16gg\LL	1	.
.	.	16ff#\	3	.
.	.	16aan\	5	.
.	.	16gg\	4	.
.	.	16dd\	1	.
.	.	16cc#X\JJ	3	.
=2	=2	=2	=2	=2
4.GG\] 4.D\] 4.B\]	.	16ee\LL	5	.
.	.	16dd\	4	.
.	.	16ccn\	3	.
.	.	16b\	2	.
.	.	16a\	1	.
.	.	16g\JJ	3	.
4r	.	16f#\LL	2	.
.	.	16g\	3	.
.	.	16a\	4	.
.	.	16g\	1	.
8r	.	16gg\	5	.
.	.	16ee\JJ	.	.
=3	=3	=3	=3	=3
8qAA/	.	8qe/	.	.
8.A\L	1	8dd\L	.	.
.	.	8cc#X\	.	.
16G#X\L	3	.	.	.
16B\	1	[8ccn\J	.	.
16A\JJ	2	.	.	.
16G#X\LL	3	4cc\]	.	.
16A\	2	.	.	.
16c\	1	.	.	.
16B\	2	.	.	.
16A\	3	8r	.	.
16Gn\JJ	1	.	.	.
=4	=4	=4	=4	=4
!	!	!LO:SIC:o=:v: nuta c przekreślona ukosną kreską	!	!
16F#\LL	2	4a\ 4cc\ 4dd\ 4aa\	.	<
16E\	3	.	.	.
16D\	1	.	.	.
16C\	2	.	.	.
16BB\	3	8r	.	.
16AA\JJ	1	.	.	.
16GG/LL	2	4dd\ 4ff#\ 4aa\ 4ddd\	.	.
16FF#/	3	.	.	.
16EE/	4	.	.	.
16DD/	5	.	.	.
16EE/	4	8r	.	.
16FF#/JJ	3	.	.	[
!!LO:LB:g=original
=5	=5	=5	=5	=5
*^	*	*	*	*
16GG/LL	4GG\	.	16gg\LL	.	.
16G/	.	.	16ggg\	.	.
16BB/ 16D/	.	.	16ff#\	.	.
16G/	.	.	16ggg\	.	.
16BB/ 16D/	8ryy	.	16ee\	.	.
16G/JJ	.	.	16ggg\JJ	.	.
16GG/LL	4GG\	.	16dd\LL	.	.
16G/	.	.	16ggg\	.	.
16BB/ 16D/	.	.	16cc\	.	.
16G/	.	.	16ggg\	.	.
16BB/ 16D/	8ryy	.	16b\	.	.
16G/JJ	.	.	16ggg\JJ	.	.
=6	=6	=6	=6	=6	=6
16GG/LL	4GG\	.	16dd\LL	.	.
16F#/	.	.	16ddd\	.	.
16C/ 16D/	.	.	16cc\	.	.
16F#/	.	.	16ddd\	.	.
16C/ 16D/	8ryy	.	16a\	.	.
16F#/JJ	.	.	16ddd\JJ	.	.
16GG/LL	4GG\	.	4d^/	.	.
16A/	.	.	.	.	.
16C/ 16D/	.	.	.	.	.
16A/	.	.	.	.	.
16C/ 16D/	8ryy	.	16e/LL	.	.
16A/JJ	.	.	16f#/JJ	.	.
*v	*v	*	*	*	*
=7	=7	=7	=7	=7
16GGG/LL	.	16g\LL	.	.
16GG/	.	16gg\	.	.
16BBB/ 16DD/	.	16f#\	.	.
16GG/	.	16gg\	.	.
16BBB/ 16DD/	.	16e\	.	.
16GG/JJ	.	16gg\JJ	.	.
16GGG/LL	.	16d/LL	.	.
16GG/	.	16gg/	.	.
16BBB/ 16DD/	.	16c/	.	.
16GG/	.	16gg/	.	.
16BBB/ 16DD/	.	16B/	.	.
16GG/JJ	.	16gg/JJ	.	.
=8	=8	=8	=8	=8
16GGG/LL	.	16d/LL	.	.
16AA/	.	16dd/	.	.
16CC/ 16DD/	.	16c/	.	.
16AA/	.	16dd/	.	.
16CC/ 16DD/	.	16A/	.	.
16AA/JJ	.	16dd/JJ	.	.
16GGG\LL	.	4D</	.	.
16AA\	.	.	.	.
16CC\ 16DD\	.	.	.	.
16AA\	.	.	.	.
16CC\ 16DD\	.	16E</LL	.	.
16AA\JJ	.	16F#</JJ	.	.
!!LO:LB:g=original
=9	=9	=9	=9	=9
4GGG/ 4GG/	.	16G/LL	.	.
.	.	16B/	.	.
.	.	16d/	.	.
.	.	16g/JJ	.	.
8AAA/ 8AA/	.	16c^/LL 16d/	.	.
.	.	16f#/JJ	.	.
4BBB/ 4BB/	.	16B/LL	.	.
.	.	16d/	.	.
.	.	16g/	.	.
.	.	16b/JJ	.	.
8CC/ 8C/	.	16e^/LL 16g/ 16a/	.	.
.	.	16ee/JJ	.	.
=10	=10	=10	=10	=10
4DD/ 4D/	.	16g\LL	.	.
.	.	16b\	.	.
.	.	16dd\	.	.
.	.	16gg\JJ	.	.
8CC#X/ 8C#X/	.	16g^<\LL 16b-X\ 16ee\	.	.
.	.	16gg\JJ	.	.
8DD/L 8D/	.	16g\LL 16bn\ 16dd\	.	f
.	.	16gg\	.	.
8DD/ 8D/	.	16a\ 16cc\ 16dd\	.	.
.	.	16aa\	.	.
8DD/J 8D/	.	16a\ 16cc\ 16dd\	.	.
.	.	16ff#\JJ	.	.
=11	=11	=11	=11	=11
16GG/LL	.	2.g\ 2.b\ 2.dd\ 2.gg\	.	.
16G/	.	.	.	.
16FF#/	.	.	.	.
16G/	.	.	.	.
16EE/	.	.	.	.
16G/JJ	.	.	.	.
16DD/LL	.	.	.	.
16G/	.	.	.	.
16CC/	.	.	.	.
16G/	.	.	.	.
16BBB/	.	.	.	.
16G/JJ	.	.	.	.
=12	=12	=12	=12	=12
*	*	*^	*	*
16CC/LL	.	8a/L 8ee/	4g\	.	.
16C/	.	.	.	.	.
16DD/	.	8dd/	.	.	.
16D/	.	.	.	.	.
16EE-X/	.	8cc#X/J	8g^\ 8b-X\	.	.
16E-X/JJ	.	.	.	.	.
16DD/LL	.	4dd/	4g\ 4bn\	.	.
16D/	.	.	.	.	.
16BB/	.	.	.	.	.
16GG/	.	.	.	.	.
16DD/	.	8dd/	8f#\ 8a\	.	.
16D/JJ	.	.	.	.	.
*	*	*v	*v	*	*
=13	=13	=13	=13	=13
16GG\LL	.	4g\ 4b\ 4gg\	.	<
16G\	.	.	.	.
16GG\	.	.	.	.
16A\	.	.	.	.
16GG\	.	8r	.	.
16B\JJ	.	.	.	.
16C\LL	.	4g\ 4cc\ 4ee\ 4gg\	.	.
16c\	.	.	.	.
16C\	.	.	.	.
16d\	.	.	.	.
16C\	.	8r	.	.
16e\JJ	.	.	.	[
!!LO:LB:g=original
=14	=14	=14	=14	=14
.	.	8qdd/	.	f
16D\LL	.	16ddd\LL	.	.
16G\	.	16bb\	.	.
16B\	.	16gg\	.	.
16d\	.	16dd\	.	.
*clefG2	*	*	*	*
16g\	.	16b\	.	.
16b\JJ	.	16g\JJ	.	.
4dd\	.	4d/	.	.
*clefF4	*	*	*	*
8D\ 8d\	.	8a\ 8cc\ 8ff#\	.	.
=15	=15	=15	=15	=15
4G\	.	16g\LL 16b\ 16gg\	.	.
.	.	8qee/	.	.
.	.	16dd\	.	.
.	.	16cc#X\	.	.
.	.	16dd\JJ	.	.
8D\ 8d\	.	16a\LL 16ccn\ 16ff#\	.	.
.	.	16dd\JJ	.	.
4G\	.	16g\ 16b\ 16gg\	.	.
.	.	8qe/	.	>
.	.	16d/LL	.	.
.	.	16c#X/	.	.
.	.	16d/	.	.
8DD/ 8D/	.	16A/ 16cn/ 16f#/	.	.
.	.	16d/JJ	.	.
=16	=16	=16	=16	=16
.	.	8qG/	.	.
[2.EE-X\ [2.E-X\	.	8.b-X/L	.	f
.	.	16f#X/L	.	.
.	.	16a-X/	.	.
.	.	16g/JJ	.	.
.	.	16e-X/LL	.	.
.	.	16d/	.	.
.	.	16fn/	.	.
.	.	16e-/	.	.
.	.	16B-X/	.	.
.	.	16An/JJ	.	.
=17	=17	=17	=17	=17
4EE-/] 4E-/]	.	16c</LL	5	.
.	.	16B-X</	.	.
.	.	16A-X</	.	.
.	.	16G</	.	.
8rFF	.	16F#</	.	.
.	.	16E-X</JJ	.	.
4rFF	.	16D</LL	1	.
.	.	16E-</	2	.
.	.	16F#</	3	.
.	.	16E-</	1	.
8rFF	.	16e-X</	5	.
.	.	16c</JJ	.	.
!!LO:LB:g=original
=18	=18	=18	=18	=18
8qFFF#/	.	.	.	.
8.FF#`\L	.	16B-X</LL	.	.
.	.	16An</JJ	.	.
.	.	[4A-X</	.	.
16EEn\L	4	.	.	.
16GG\	1	.	.	.
16FF#\JJ	4	.	.	.
16AA-X\LL	2	4A-</]	.	.
16GG\	4	.	.	.
16BB-X\	2	.	.	.
16AA-\	4	.	.	.
16C\	1	8rE	.	.
16BB-\JJ	3	.	.	.
=19	=19	=19	=19	=19
16D\LL	1	2.r	.	.
16C\	4	.	.	.
16E-X\	2	.	.	.
16D\	4	.	.	.
16F#\	1	.	.	.
16E-\JJ	3	.	.	.
16G\LL	1	.	.	.
16F#\	2	.	.	.
16A-X\	1	.	.	.
16F#\	2	.	.	.
16C\	4	.	.	.
16D\JJ	3	.	.	.
=20	=20	=20	=20	=20
16EE-X\LL	.	16ee-X\LL	.	.
16G\	.	16eee-X\	.	.
16BB-X\ 16E-X\	.	16dd\	.	.
16G\	.	16eee-\	.	.
16BB-\ 16E-\	.	16cc\	.	.
16G\JJ	.	16eee-\JJ	.	.
16EE-\LL	.	16b-X\LL	.	.
16G\	.	16eee-\	.	.
16BB-\ 16E-\	.	16a-X\	.	.
16G\	.	16eee-\	.	.
16BB-\ 16E-\	.	16g\	.	.
16G\JJ	.	16eee-\JJ	.	.
=21	=21	=21	=21	=21
16EE-X\LL	.	16b-X\LL	.	.
16Fn\	.	16bb-X\	.	.
16AA-X\ 16BB-X\	.	16a-X\	.	.
16F\	.	16bb-\	.	.
16AA-\ 16BB-\	.	16fn\	.	.
16F\JJ	.	16bb-\JJ	.	.
16EE-X\LL	.	4B-X^/	.	.
16F\	.	.	.	.
16AA-\ 16BB-\	.	.	.	.
16F\	.	.	.	.
16AA-\ 16BB-\	.	16c/LL	.	.
16F\JJ	.	16d/JJ	.	.
!!LO:LB:g=original
=22	=22	=22	=22	=22
16CC/LL	.	16e-X/LL	.	.
16E-X/	.	16ee-X/	.	.
16EE-X/ 16GG/	.	16d/	.	.
16E-/	.	16ee-/	.	.
16EE-/ 16GG/	.	16c/	.	.
16E-/JJ	.	16ee-/JJ	.	.
*rep	*	*	*	*
16CC/LL	.	16B-X/LL	.	.
16E-/	.	16ee-/	.	.
16EE-/ 16GG/	.	16A-X/	.	.
16E-/	.	16ee-/	.	.
16EE-/ 16GG/	.	16G/	.	.
16E-/JJ	.	16ee-/JJ	.	.
*Xrep	*	*	*	*
=23	=23	=23	=23	=23
16GGG/LL	.	16g/LL	.	.
16GG/	.	16gg/	.	.
16BBBn/ 16DD/	.	16fn/	.	.
16GG/	.	16gg/	.	.
16BBB/ 16DD/	.	16d/	.	.
16GG/JJ	.	16gg/JJ	.	.
16GGG/LL	.	4G^/	.	.
16GG/	.	.	.	.
16BBB/ 16DD/	.	.	.	.
16GG/	.	.	.	.
16BBB/ 16DD/	.	16An/LL	.	.
16GG/JJ	.	16Bn/JJ	.	.
=24	=24	=24	=24	=24
16AAA-X/	.	16c`/	.	.
16C/LL	.	16ccc\LL	.	.
16EE-X/ 16AA-X/	.	16ee-X\	.	.
16C/	.	16ccc\	.	.
!	!	!LO:TX:t=P:problem=mixed beam	!	!
16AAA-/	.	16e-X/	.	.
16C/JJ	.	16ccc\JJ	.	.
16BBB-X/	.	16d`/	.	.
16F#/LL	.	16ddd\LL	.	.
16FF#/ 16BB-X/	.	16ffn\	.	.
16F#/	.	16ddd\	.	.
!	!	!LO:TX:t=P:problem=mixed beam	!	!
16BBB-/	.	16f#/	.	.
16F#/JJ	.	16ddd\JJ	.	.
=25	=25	=25	=25	=25
16CC/	.	16e-X`/	.	.
16E-X/LL	.	16eee-X\LL	.	.
16GG/ 16C/	.	16gg\	.	.
16E-/	.	16eee-\	.	.
!	!	!LO:TX:t=P:problem=mixed beam	!	!
16CC/	.	16g\	.	.
16E-/JJ	.	16eee-\JJ	.	.
16DD/	.	16fn`/	.	.
16Fn/LL	.	16fff#\LL	.	.
16FF#/ 16BB-X/	.	16bb-X\	.	.
16F/	.	16fff#\	.	.
!	!	!LO:TX:t=P:problem=mixed beam	!	!
16DD/	.	16a-X\	.	.
16F/JJ	.	16fff#\JJ	.	.
!!LO:LB:g=original
=26	=26	=26	=26	=26
16EE-X/	.	16g`/	.	.
16G/LL	.	16ggg\LL	.	.
16BB-X/ 16E-X/	.	16bb-X\	.	.
16G/	.	16ggg\	.	.
!	!	!LO:TX:t=P:problem=mixed beam	!	!
16EE-/	.	16g/	.	.
16G/JJ	.	16ggg\JJ	.	.
16FFn/	.	16a-X`/	.	.
16F#\LL	.	16aaa-X\LL	.	.
16BB-X\ 16D\	.	16bb-X\	.	.
16F#\	.	16aaa-\	.	.
!	!	!LO:TX:t=P:problem=mixed beam	!	!
16GG\	.	16g/	.	.
16G\JJ	.	16ggg\JJ	.	.
=27	=27	=27	=27	=27
16AA-X/	.	16fn/	.	.
16c\LL	.	16fffn\LL	.	.
16A-X\	.	16ccc\	.	.
16c\	.	16fff\	.	.
!	!	!LO:TX:t=P:problem=mixed beam	!	!
16AAn\	.	16f/	.	.
16c\JJ	.	16fff\JJ	.	.
16BB-X\LL	.	16g/LL	.	.
!	!	!LO:TX:t=P:problem=mixed beam	!	!
16B-X\	.	16eee-X\	.	.
16BB-\	.	16a-X/	.	.
!	!	!LO:TX:t=P:problem=mixed beam	!	!
16B-\	.	16fff\	.	.
16BB-\	.	16f/	.	.
!	!	!LO:TX:t=P:problem=mixed beam	!	!
16B-\JJ	.	16ddd\JJ	.	.
=28	=28	=28	=28	=28
16E-X\LL	.	2.ee-X\ 2.gg\ 2.eee-X\	.	rfz
16e-X\	.	.	.	.
16D\	.	.	.	.
16e-\	.	.	.	.
16C\	.	.	.	.
16e-\JJ	.	.	.	.
16BB-X\LL	.	.	.	.
16e-\	.	.	.	.
16AA-X\	.	.	.	.
16e-\	.	.	.	.
16GG\	.	.	.	.
16e-\JJ	.	.	.	.
=29	=29	=29	=29	=29
*	*	*^	*	*
16AA-X\LL	.	8a/L 8cc-X/	4e-X\	.	.
16A-X\	.	.	.	.	.
16BB-X\	.	8b-X/	.	.	.
16B-X\	.	.	.	.	.
16C-X\	.	8a/J	8e-\ 8f#\	.	.
16c-X\JJ	.	.	.	.	.
16BB-\LL	.	4g/ 4b-/	4e-\	.	.
16B-\	.	.	.	.	.
16G\	.	.	.	.	.
16E-X\	.	.	.	.	.
16BB-\	.	8fn/ 8b-/	8d\	.	.
16B-\JJ	.	.	.	.	.
*	*	*v	*v	*	*
!!LO:PB:g=original
=30	=30	=30	=30	=30
16EE-X/LL	.	4e-X\ 4g\ 4ee-X\	.	.
16E-X/	.	.	.	.
16EE-/	.	.	.	.
16F#/	.	.	.	.
16EE-/	.	8r	.	<
16G/JJ	.	.	.	.
16AA-X\LL	.	4cc\ 4ee-\ 4aa-X\ 4ccc\	.	.
16A-X\	.	.	.	.
16AA-\	.	.	.	.
16B-X\	.	.	.	.
16AA-\	.	8r	.	.
16c\JJ	.	.	.	[
=31	=31	=31	=31	=31
.	.	8qb-X/	.	.
16BB-X\LL	.	16bb-X\LL	.	.
16E-X\	.	16gg\	.	.
16G\	.	16ee-X\	.	.
16B-X\	.	16b-X\	.	.
*clefG2	*	*	*	*
16e-X\	.	16g\	.	.
16g\JJ	.	16e-X\JJ	.	.
4b-X\	.	4B-X/	.	.
*clefF4	*	*	*	*
8BB-X\ 8B-X\	.	8f#/ 8a-X/ 8dd/	.	.
=32	=32	=32	=32	=32
4E-X\	.	16e-X/LL 16g/ 16ee-X/	.	.
.	.	8qcc/	.	.
.	.	16b/	.	.
.	.	16an/	.	.
.	.	16b/	.	.
8BB-X\ 8B-X\	.	16f#/ 16a-X/ 16dd/	.	.
.	.	16b/JJ	.	.
4E-\	.	16e-/ 16g/ 16ee-/	.	.
.	.	8qccc/	.	.
.	.	16bb\LL	.	.
.	.	16aan\	.	.
.	.	16bb\	.	.
8BB-\ 8B-\	.	16ff#\ 16aa-X\ 16ddd\	.	.
.	.	16bb\JJ	.	.
=33	=33	=33	=33	=33
16E-X`\	.	4ee-X\ 4gg\ 4eee-X\	.	.
16d`\LL	.	.	.	.
(16e\	.	.	.	.
16An\)	.	.	.	.
16B-X`\	.	8r	.	.
(16F#X\JJ	.	.	.	.
16G\LL)	.	4r	.	.
16D`\	.	.	.	.
(16E-X\	.	.	.	.
16AA\	.	.	.	.
16BB-X\	.	8r	.	.
16GG\JJ)	.	.	.	.
!!LO:LB:g=original
=34	=34	=34	=34	=34
8qCC/	.	.	.	.
16C`/	.	4gg\ 4ccc\ 4eee-X\ 4ggg\	.	.
(16d\LL	.	.	.	.
16e-X\)	.	.	.	.
16Bn`\	.	.	.	.
(16c\	.	8r	.	.
16F#X\JJ)	.	.	.	.
16G`/LL	.	4r	.	.
(16D/	.	.	.	.
16E-X/)	.	.	.	.
16BBn`/	.	.	.	.
(16C/	.	8r	.	.
16GG/JJ)	.	.	.	.
=35	=35	=35	=35	=35
4AA-X/	.	16r	.	.
.	.	(16bbn\LL	2	.
.	.	16ccc\)	3	.
.	.	16gg\	2	.
8r	.	16aa-X\	3	.
.	.	16een\JJ	2	.
4r	.	16ff#\LL	3	.
.	.	16bn\	2	.
.	.	16cc\	3	.
.	.	16g\	2	.
8r	.	16a-X\	3	.
.	.	16f#\JJ	1	.
=36	=36	=36	=36	=36
16BB-X/	.	4.e-X/ 4.g/ [4.b-X/	.	.
16f#X\LL	.	.	.	.
16g\	.	.	.	.
16d\	.	.	.	.
16e-X\	.	.	.	.
16c\JJ	.	.	.	.
4B-X\	.	16b-/LL]	.	.
.	.	32f#/L 32a-X/ 32dd/	.	.
.	.	32cc/J	.	.
.	.	16b-/	.	.
.	.	16a-X/	.	.
8Bn\	.	16g/	.	.
.	.	16f#/JJ	.	.
=37	=37	=37	=37	=37
16c\	.	4e-X/ 4g/ 4ee-X/	.	.
(16f#X\LL	.	.	.	.
16g\)	.	.	.	.
16d`\	.	.	.	.
(16e-X\	.	8r	.	.
16Bn\JJ)	.	.	.	.
16c`\LL	.	4r	.	.
(16F#X\	.	.	.	.
16G\)	.	.	.	.
16D`\	.	.	.	.
(16E-X\	.	8r	.	.
16C\JJ)	.	.	.	.
!!LO:LB:g=original
=38	=38	=38	=38	=38
16D/	.	[4.dd\ [4.ff#X\ [4.ddd\	.	rfz
*clefG2	*	*	*	*
16cc#X/LL	.	.	.	.
16dd/	.	.	.	.
16g#X/	.	.	.	.
16a/	.	.	.	.
16e##X/JJ	.	.	.	.
16f#X/LL	.	4dd\] 4ff#\] 4ddd\]	.	.
16c#X/	.	.	.	.
16d/	.	.	.	.
*clefF4	*	*	*	*
16G#X/	.	.	.	.
16A/	.	8dd\ 8aa\ 8ccc\	.	.
16F#X/JJ	.	.	.	.
=39	=39	=39	=39	=39
.	.	16qqb/LL	.	.
.	.	16qqgg/JJ	.	.
4G\	.	16ccc\LL	.	.
.	.	16bb-X\	.	.
.	.	16aa\	.	.
.	.	16gg\	.	.
8r	.	16ffn\	.	.
.	.	16ee-X\JJ	.	.
4c\	.	16dd\LL	.	.
.	.	16cc\	.	.
.	.	16b-X\	.	.
.	.	16a\	.	.
8r	.	16cc\	.	.
.	.	16ee-\JJ	.	.
=40	=40	=40	=40	=40
.	.	8qdd/	.	.
16D\LL	.	16ddd\LL	.	.
16G\	.	16bb-X\	.	.
16B-X\	.	16gg\	.	.
16d\	.	16dd\	.	.
*clefG2	*	*	*	*
16g\	.	16b-X\	.	.
16b-X\JJ	.	16g\JJ	.	.
4dd\	.	4d/	.	.
*clefF4	*	*	*	*
8D;\ 8d\	.	8a;\ 8cc\ 8ff#X\	.	f
=41	=41	=41	=41	=41
*^	*	*	*	*
16GG/LL	4GG\	.	16gg\LL	.	p
16G/	.	.	16ggg\	.	.
16BB-X/ 16D/	.	.	16ffn\	.	.
16G/	.	.	16ggg\	.	.
16BB-/ 16D/	8ryy	.	16ee-X\	.	.
16G/JJ	.	.	16ggg\JJ	.	.
*rep	*rep	*	*	*	*
16GG/LL	4GG\	.	16dd\LL	.	.
16G/	.	.	16ggg\	.	.
16BB-/ 16D/	.	.	16cc\	.	.
16G/	.	.	16ggg\	.	.
16BB-/ 16D/	8ryy	.	16b-X\	.	.
16G/JJ	.	.	16ggg\JJ	.	.
*Xrep	*Xrep	*	*	*	*
=42	=42	=42	=42	=42	=42
16GG/LL	4GG\	.	16dd\LL	.	.
16F#/	.	.	16ddd\	.	.
16C/ 16D/	.	.	16cc\	.	.
16F#/	.	.	16ddd\	.	.
16C/ 16D/	8ryy	.	16a\	.	.
16F#/JJ	.	.	16ddd\JJ	.	.
16GG/LL	4GG\	.	4d^/	.	.
16A/	.	.	.	.	.
16C/ 16D/	.	.	.	.	.
16A/	.	.	.	.	.
16C/ 16D/	8ryy	.	16e/LL	.	.
16A/JJ	.	.	16f#X/JJ	.	.
*v	*v	*	*	*	*
!!LO:LB:g=original
=43	=43	=43	=43	=43
16GGG/LL	.	16g/LL	.	f
16GG/	.	16gg/	.	.
16BBBn/ 16DD/	.	16f#/	.	.
16GG/	.	16gg/	.	.
16BBB/ 16DD/	.	16e/	.	.
16GG/JJ	.	16gg/JJ	.	.
*rep	*	*	*	*
16GGG/LL	.	16d/LL	.	.
16GG/	.	16gg/	.	.
16BBB/ 16DD/	.	16c/	.	.
16GG/	.	16gg/	.	.
16BBB/ 16DD/	.	16B/	.	.
16GG/JJ	.	16gg/JJ	.	.
*Xrep	*	*	*	*
=44	=44	=44	=44	=44
16GGG/LL	.	16d/LL	.	.
16AA/	.	16dd/	.	.
16CC/ 16DD/	.	16c/	.	.
16AA/	.	16dd/	.	.
16CC/ 16DD/	.	16A/	.	.
16AA/JJ	.	16dd/JJ	.	.
16GGG\LL	.	4D<^>/	.	.
16AA\	.	.	.	.
16CC\ 16DD\	.	.	.	.
16AA\	.	.	.	.
16CC\ 16DD\	.	16E</LL	.	.
16AA\JJ	.	16F#</JJ	.	.
=45	=45	=45	=45	=45
4GGG/ 4GG/	.	16G/LL	.	.
.	.	16B/	.	.
.	.	16d/	.	.
.	.	16g/JJ	.	.
8AAA/ 8AA/	.	16c/LL 16d/	.	.
.	.	16f#/JJ	.	.
4BBB/ 4BB/	.	16B/LL	.	.
.	.	16d/	.	.
.	.	16g/	.	.
.	.	16b/JJ	.	.
8CC/ 8C/	.	16e/LL 16g/ 16a/	.	.
.	.	16ee/JJ	.	.
=46	=46	=46	=46	=46
4DD/ 4D/	.	16g\LL	.	.
.	.	16b\	.	.
.	.	16dd\	.	.
.	.	16gg\JJ	.	.
8CC#X/ 8C#X/	.	16g\LL 16b-X\ 16ee\	.	<
.	.	16gg\JJ	.	.
8DD/L 8D/	.	16g\LL 16bn\ 16dd\	.	.
.	.	16gg\	.	.
8DD/ 8D/	.	16a\ 16cc\ 16dd\	.	.
.	.	16aa\	.	.
8DD/J 8D/	.	16a\ 16cc\ 16dd\	.	.
.	.	16ff#\JJ	.	[
!!LO:LB:g=original
=47	=47	=47	=47	=47
16GG/LL	.	2.g\ 2.b\ 2.dd\ 2.gg\	.	.
16G/	.	.	.	.
16FF#/	.	.	.	.
16G/	.	.	.	.
16EE/	.	.	.	.
16G/JJ	.	.	.	.
16DD/LL	.	.	.	.
16G/	.	.	.	.
16CC/	.	.	.	.
16G/	.	.	.	.
16BBB/	.	.	.	.
16G/JJ	.	.	.	.
=48	=48	=48	=48	=48
*	*	*^	*	*
16CC/LL	.	8ee/L	4g\ 4a\	.	.
16C/	.	.	.	.	.
16DD/	.	8dd/	.	.	.
16D/	.	.	.	.	.
16EE-X/	.	8cc#X/J	8g\ 8b-X\	.	.
16E-X/JJ	.	.	.	.	.
16DD/LL	.	4g\ 4bn\ 4dd\	4.ryy	.	.
16D/	.	.	.	.	.
16BB/	.	.	.	.	.
16GG/	.	.	.	.	.
16DD/	.	8f#/ 8a/ 8dd/	.	.	.
16D/JJ	.	.	.	.	.
*	*	*v	*v	*	*
=49	=49	=49	=49	=49
16GG/LL	.	4g\ 4b\ 4gg\	.	.
16G/	.	.	.	.
16GG/	.	.	.	.
16A\	.	.	.	.
16GG/	.	8r	.	.
16B/JJ	.	.	.	.
16C\LL	.	4g\ 4cc\ 4ee\ 4gg\	.	.
16c\	.	.	.	.
16C\	.	.	.	.
16d\	.	.	.	.
16C\	.	8r	.	.
16e\JJ	.	.	.	.
=50	=50	=50	=50	=50
.	.	8qqdd/	.	.
16D\LL	.	16ddd\LL	.	.
16G\	.	16bb\	.	.
16B\	.	16gg\	.	.
16d\	.	16dd\	.	.
*clefG2	*	*	*	*
16g\	.	16b\	.	.
16b\JJ	.	16g\JJ	.	.
4dd\	.	4d/	.	.
*clefF4	*	*	*	*
8D\ 8d\	.	8a\ 8cc\ 8ff#\	.	.
!!LO:LB:g=original
=51	=51	=51	=51	=51
4G\	.	16g\LL 16b\ 16gg\	.	.
.	.	8qee/	.	.
.	.	16dd\	.	.
.	.	16cc#X\	.	.
.	.	16dd\	.	.
8D\ 8d\	.	16a\ 16ccn\ 16ff#\	.	.
.	.	16dd\JJ	.	.
4G\	.	16g\ 16b\ 16gg\	.	.
.	.	8qe/	.	.
.	.	16d/LL	.	.
.	.	16c#X/	.	.
.	.	16d/	.	.
8DD/ 8D/	.	16A/ 16cn/ 16f#/	.	.
.	.	16d/JJ	.	.
=52	=52	=52	=52	=52
16GG/	.	4G/ 4B/ 4g/	.	p
16f#\LL	.	.	.	.
16g\	.	.	.	.
16c#X\	.	.	.	.
16d\	.	8r	.	.
16A#X\JJ	.	.	.	.
16B\LL	.	4r	.	.
16F#\	.	.	.	.
16G\	.	.	.	.
16C#X\	.	.	.	.
16D\	.	8r	.	.
16BB\JJ	.	.	.	.
=53	=53	=53	=53	=53
16GG/	.	4d/ 4g/ 4b/ 4dd/	.	.
*clefG2	*	*	*	*
16a#X/LL	.	.	.	.
16b/	.	.	.	.
16f#/	.	.	.	.
16g/	.	8r	.	<
16c#X/JJ	.	.	.	.
*clefF4	*	*	*	*
16d\LL	.	4r	.	.
16A#X\	.	.	.	.
16B\	.	.	.	.
16F#\	.	.	.	.
16G\	.	8r	.	.
16C#X\JJ	.	.	.	.
=54	=54	=54	=54	=54
16D\	.	16r	.	.
*clefG2	*	*	*	*
16aa#X`\LL	.	16ccc#X`\LL	.	.
(16bb\	.	(16ddd\	.	.
16ff#\)	.	16aa#X\)	.	.
16gg\	.	16bb\	.	.
16a#X^\JJ 16cc#X\	.	16ff#^\JJ	.	.
16b\LL 16dd\	.	16gg\LL	.	.
16a#X\	.	16cc#X\	.	.
16b\	.	16dd\	.	.
16f#\	.	16a#X\	.	.
16g\	.	16b^\	.	.
16A#X^\JJ 16c#X\	.	16f#\JJ	.	.
!!LO:LB:g=original
=55	=55	=55	=55	=55
16B\ 16d\	.	16g/LL	.	.
*clefF4	*	*	*	*
16A#X\LL	.	16c#X/	.	.
16B\	.	16d/	.	.
16F#\	.	16A#X</	.	.
16G\	.	16B</	.	.
16AA#X\JJ 16C#X\	.	16F#</JJ	.	.
16BB\LL 16D\	.	16G</LL	.	.
16AA#X\	.	16C#X</	.	.
16BB\	.	16D</	.	.
16FF#\	.	16AA#X</	.	.
16GG\	.	16BB</	.	.
16DD#X\JJ	.	16FF#</JJ	.	.
=56	=56	=56	=56	=56
8EE\	.	8GG</L	.	.
8rCCC	.	8EE</J	.	.
8CC\	.	[8cc^\ [8ee\	.	.
!	!	!LO:TX:b:i:t=ritar&colon;	!	!
4DD/	.	8cc\L] 8ee\]	.	.
.	.	8b\ 8dd\	.	.
8D\	.	8a^\J 8cc\ 8ff#\	.	.
=57	=57	=57	=57	=57
!	!	!LO:TX:b:i:t=a tempo	!	!
4GG/	.	16g\LL 16b\ 16gg\	.	.
.	.	8qee/	.	.
.	.	16dd\	.	.
.	.	16cc#X\	.	.
.	.	16dd\	.	.
8D\ 8d\	.	16a^\ 16ccn\ 16ff#\	.	.
.	.	16dd\JJ	.	.
4G\	.	16g\ 16b\ 16gg\	.	.
.	.	8qe/	.	.
.	.	16d/LL	.	.
.	.	16c#X/	.	.
.	.	16d/	.	.
8DD/ 8D/	.	16A^>/ 16cn/ 16f#/	.	.
.	.	16d/JJ	.	.
=58	=58	=58	=58	=58
4GG/	.	4G/ 4B/ 4g/	.	.
8r	.	8r	.	.
4DD/ 4D/	.	4dd\ 4ff#\ 4aa\ 4ddd\	.	.
8r	.	8r	.	.
=59	=59	=59	=59	=59
2.GG;\ 2.G\	.	2.b;<\ 2.dd\ 2.gg\ 2.bb\	.	f
!LO:TX:b:t=3043	!	!	!	!
==	==	==	==	==
*-	*-	*-	*-	*-
!!!system-decoration: {(s1,s2)}
!!!RDF**kern: > = above
!!!RDF**kern: < = below
!!!RDF**dynam: > = dim
!!!RDF**dynam: < = cres
!!!EED: Leszek Kubiak
!!!EEV: 2020-07-20
!!!ENC: Mateusz Solarz
!!!END: 2020-06-16
!!!YEC: Copyright 2022 Narodowy Instytut Fryderyka Chopina (https://polishscores.org)
!!!YEM: Licence CC BY 4.0 (https://creativecommons.org/licenses/by/4.0)
